!!!!SEGMENT: pl-wumfc--n26519_dobrzynski-ignacy-feliks--les-larmes-op-41.krn
!!!cenid: 18xx:4183
!!!COM: Dobrzyński, Ignacy Feliks
!!!COM-rismID: pe30020642
!!!CDT: 1807/02/15-1867/10/09
!!!CNT: Polish
!!!OTL: Les larmes op. 41
!!!PDT:
!!!AGN:
!!!SMS-siglum: PL-Wumfc
!!!SMS-shelfmark: N26519
!!!SMS-variant:
!!!SMS-altvar:
!!!SMS-shelfwork: W
!!!NIFC-rismSourceID: 1001176940
!!!NIFC-rismChildID: 1001176940
!!!NIFC-islandoraID: pl-wumfc:8728
!!!URL-pdf-islandora: https://repozytorium.nifc.pl/islandora/object/pl-wumfc%3A8728/datastream/PDF/view
!!!URL-scan: https://polish.musicsources.pl/pl/lokalizacje/galeria/druki-muzyczne/11961-les-larmes/2 @EN{Scan on Polish Music Sources Website} @PL{Skany w portalu Dziedzictwo Muzyki Polskiej w otwartym dostępie}
!!!ONB-nifc:
!!!OMD: Andantino doloroso e molt’ espressivo.
!!!AIN: 1 cello 2 piano 1 violn
!!!key: e
**kern	**kern	**dynam	**kern	**dynam
*part3	*part2	*part2	*part1	*part1
*staff3	*staff2	*	*staff1	*
*I"Piano.	*I"Piano.	*	*I"VIOLINO o VIOLONCELLO.	*
*I'	*I'	*	*I'	*
*Ipiano	*Ipiano	*	*Ivioln|Icello	*
*ICklav	*ICklav	*	*	*
*IGacmp	*IGacmp	*	*IGsolo	*
*clefF4	*clefG2	*	*clefG2	*
*k[f#]	*k[f#]	*	*k[f#]	*
*e:	*e:	*	*e:	*
*M6/8	*M6/8	*	*M6/8	*
*>[A,B,B1,B,B2,C]	*>[A,B,B1,B,B2,C]	*	*>[A,B,B1,B,B2,C]	*
=1	=1	=1	=1	=1
*>A	*>A	*>A	*>A	*>A
([4.E\	8gL 8e 8B/	p	2.r	.
.	8g 8e 8B/	.	.	.
.	8gJ 8e 8B/	.	.	.
8E\L]	8gL 8e 8B/	.	.	.
8F#\	8g 8e 8B/	.	.	.
8E\J)	8gJ 8e 8B/	.	.	.
=2	=2	=2	=2	=2
*	*tremolo	*	*	*
(4G\	8gL 8e 8B/	.	2.r	.
.	8g 8e 8B/	.	.	.
8E\	8gJ 8e 8B/	.	.	.
4BB/	8gL 8e 8B/	.	.	.
.	8g 8e 8B/	.	.	.
8GG/)	8gJ 8e 8B/	.	.	.
*	*Xtremolo	*	*	*
=3!|:	=3!|:	=3!|:	=3!|:	=3!|:
*>B	*>B	*>B	*>B	*>B
8EE/L	8gL 8e 8B/	.	([4.b\	p
8E/	8g 8e 8B/	.	.	.
8E/J	8gJ 8e 8B/	.	.	.
*tremolo	*tremolo	*	*	*
8E\L	8gL 8e 8B/	.	8b\L]	.
8E\	8g 8e 8B/	.	8cc\	.
8E\J	8gJ 8e 8B/	.	8b\J)	.
*Xtremolo	*Xtremolo	*	*	*
=4	=4	=4	=4	=4
8EE/L	8gL 8e 8B/	.	[4.e/	.
8E/	8g 8e 8B/	.	.	.
8E/J	8gJ 8e 8B/	.	.	.
*tremolo	*tremolo	*	*	*
8E\L	8gL 8e 8B/	.	4e/]	.
8E\	8g 8e 8B/	.	.	.
8E\J	8gJ 8e 8B/	.	8r	.
*Xtremolo	*Xtremolo	*	*	*
=5	=5	=5	=5	=5
8EE/L	8gL 8e 8B/	.	([4.b\	.
8E/	8g 8e 8B/	.	.	.
8E/J	8gJ 8e 8B/	.	.	.
*tremolo	*tremolo	*	*	*
8E\L	8gL 8e 8B/	.	8b\L]	.
8E\	8g 8e 8B/	.	8cc\	.
8E\J	8gJ 8e 8B/	.	8b\J)	.
=6	=6	=6	=6	=6
8E\L	8gL 8e 8B/	<	[2.gg\	<
8E\	8g 8e 8B/	.	.	.
8E\J	8gJ 8e 8B/	.	.	.
8E\L	8gL 8e 8B/	.	.	.
8E\	8g 8e 8B/	.	.	.
8E\J	8gJ 8e 8B/	[[	.	.
!!LO:LB:g=original
=7	=7	=7	=7	=7
8E\L	8gL 8e 8B/	.	2.gg\_	.
8E\	8g 8e 8B/	.	.	.
8E\J	8gJ 8e 8B/	.	.	.
8E\L	8gL 8e 8B/	.	.	.
8E\	8g 8e 8B/	.	.	.
8E\J	8gJ 8e 8B/	.	.	[[
=8	=8	=8	=8	=8
8E\L	8gL 8e 8B/	>	(8gg\L]	>
8E\	8g 8e 8B/	.	8ff#\	.
8E\J	8gJ 8e 8B/	.	8ee\J)	.
8E\L	8g#XL 8e 8B/	]]	(8dd#X\L	.
8E\	8g# 8e 8B/	.	8ee\	.
8E\J	8g#J 8e 8B/	.	8b\J)	]
*Xtremolo	*	*	*	*
=9	=9	=9	=9	=9
2.AA/	8g#XL 8e 8B/	>	(2.ddn^<\	.
.	8g# 8e 8B/	.	.	.
.	8g#J 8e 8B/	.	.	.
.	8g#L 8e 8B/	.	.	.
.	8g# 8e 8B/	]	.	.
.	8g#J 8e 8B/	.	.	.
=10	=10	=10	=10	=10
([4.AA/	8aL 8e 8c/	p	4.cc\)	.
.	8a 8e 8c/	.	.	.
.	8aJ 8e 8c/	.	.	.
*	*Xtremolo	*	*	*
8AA/L]	8aL 8e 8c/	.	4r	.
8BB/	8a 8e 8c/	.	.	.
8AA/J)	8aJ 8e 8c/	.	8r	.
=11	=11	=11	=11	=11
*	*tremolo	*	*	*
2.DD#X^>/	8aL 8f# 8c/	.	([4.cc\	.
.	8a 8f# 8c/	.	.	.
.	8aJ 8f# 8c/	.	.	.
.	8aL 8f# 8c/	.	8cc\L]	.
.	8a 8f# 8c/	.	8dd\	.
.	8aJ 8f# 8c/	.	8cc\J)	.
=12	=12	=12	=12	=12
([4.AA/	8aL 8f# 8c/	.	[4.f#/	.
.	8a 8f# 8c/	.	.	.
.	8aJ 8f# 8c/	.	.	.
*	*Xtremolo	*	*	*
8AA/L]	8aL 8f# 8c/	.	4f#/]	.
8BB/	8a 8f# 8c/	.	.	.
8AA/J)	8aJ 8f# 8c/	.	8r	.
=13	=13	=13	=13	=13
*	*tremolo	*	*	*
2.DD#X^>/	8aL 8f# 8c/	.	([4.cc\	.
.	8a 8f# 8c/	.	.	.
.	8aJ 8f# 8c/	.	.	.
.	8aL 8f# 8c/	.	8cc\L]	<
.	8a 8f# 8c/	.	8dd\	.
.	8aJ 8f# 8c/	.	8cc\J	.
!!LO:LB:g=original
=14	=14	=14	=14	=14
*tremolo	*	*	*	*
8D#X\L	8aL 8f# 8c/	<	([2.aa\)	.
8D#\	8a 8f# 8c/	.	.	.
8D#\J	8aJ 8f# 8c/	.	.	.
8D#\L	8aL 8f# 8c/	[	.	.
8D#\	8a 8f# 8c/	.	.	.
8D#\J	8aJ 8f# 8c/	.	.	[[
=15	=15	=15	=15	=15
8D#X\L	8aL 8f# 8B/	.	4aa\]	f
8D#\	8a 8f# 8B/	.	.	.
8D#\	8aJ 8f# 8B/	.	8gg\)	.
8D#\	8aL 8f# 8B/	.	(8gg\L	>
8D#\	8a 8f# 8B/	.	8ff#\	.
8D#\J	8aJ 8f# 8B/	.	8ee\J)	]]
=16	=16	=16	=16	=16
8BB/L	8aL 8f# 8B/	>	(8ee\L	>
8BB/	8a 8f# 8B/	.	8dd#X\	.
8BB/	8aJ 8f# 8B/	.	8ccn\J)	]]
8BB/	8aL 8d#X 8B/	]]	(8cc/L	>
8BB/	8a 8d# 8B/	.	8b/	.
8BB/J	8aJ 8d# 8B/	.	8f#/J)	]]
*Xtremolo	*	*	*	*
=17	=17	=17	=17	=17
[2.E [2.EE/	8f#L 8d#X 8B/	.	(2.a^>/	.
.	8f# 8d# 8B/	.	.	.
.	8f#J 8d# 8B/	.	.	.
.	8f#L 8d# 8B/	.	.	.
.	8f# 8d# 8B/	.	.	.
.	8f#J 8d# 8B/	.	.	.
=18	=18	=18	=18	=18
(4.E_ 4.EE/_	8gL 8e 8B/	.	4.g/)	.
.	8g 8e 8B/	.	.	.
.	8gJ 8e 8B/	.	.	.
*	*Xtremolo	*	*	*
8E]L 8EE/]	8gL 8e 8B/	.	4r	.
8FF#/	8g 8e 8B/	.	.	.
8EE/J)	8gJ 8e 8B/	.	8r	.
=19	=19	=19	=19	=19
*	*tremolo	*	*	*
2.GG/	8eL 8B/	f	([4.ee\	f >
.	8e 8B/	.	.	.
.	8eJ 8B/	.	.	]]
.	8eL 8B/	.	8ee\L]	.
.	8e 8B/	.	8ff#\	.
.	8eJ 8B/	.	8ee\J)	.
=20	=20	=20	=20	=20
([4.GG/	8eL 8B/	.	4e/	.
.	8e 8B/	.	.	.
.	8eJ 8B/	.	8r	.
*	*Xtremolo	*	*	*
8GG/L]	8eL 8B/	.	4r	.
8FF#/	8e 8B/	.	.	.
8GG/J)	8eJ 8B/	.	8r	.
!!LO:LB:g=original
=21	=21	=21	=21	=21
[2.AA/	8eL 8c/	.	([4.ee\	.
.	8e 8c/	.	.	.
.	8eJ 8c/	.	.	.
.	8eL 8c/	.	8ee\L]	.
.	8e 8c/	.	8ff#\	.
.	8eJ 8c/	.	8ee\J)	.
=22	=22	=22	=22	=22
(4.AA/_	8f#L 8e 8c/	>	2.cc\	>]
.	8f# 8e 8c/	.	.	.
.	8f#J 8e 8c/	.	.	.
8AA/L]	8f#L 8e 8c/	.	.	.
8GG#X/	8f# 8e 8c/	.	.	.
8AA/J)	8f#J 8e 8c/	]]	.	.
=23	=23	=23	=23	=23
*	*tremolo	*	*	*
2.BB/	8gL 8e 8B/	p	([4.b\	p
.	8g 8e 8B/	.	.	.
.	8g 8e 8B/	.	.	.
.	8g 8e 8B/	.	8b\L]	.
.	8g 8e 8B/	.	8cc\	.
.	8gJ 8e 8B/	.	8b\J)	.
=24	=24	=24	=24	=24
2.BB 2.BBB\	8d#XL 8B< 8A</	.	([4.f#/	.
.	8d# 8B< 8A</	.	.	.
.	8d# 8B< 8A</	.	.	.
.	8d# 8B< 8A</	.	8f#/L]	.
.	.	.	(16qqg/LL	.
.	.	.	16qqa/JJ	.
.	8d# 8B< 8A</	.	8g/)	.
.	8d#J 8B< 8A</	.	8f#/J)	.
=25	=25	=25	=25	=25
!!LO:TX:a:B:t=1.
*>B1	*>B1	*>B1	*>B1	*>B1
[<4.E [4.EE\	8eL 8B< 8G</	.	4.e/	.
.	8e 8B< 8G</	.	.	.
.	8eJ 8B< 8G</	.	.	.
*	*Xtremolo	*	*	*
(8E]L 8EE\]	8gL 8e 8B/	.	4r	.
8F#\	8g 8e 8B/	.	.	.
8E\J)	8gJ 8e 8B/	.	8r	.
=26	=26	=26	=26	=26
(4G\	8gL 8e 8B/	.	2.r	.
.	8g 8e 8B/	.	.	.
8E\	8gJ 8e 8B/	.	.	.
4BB/	8gL 8e 8B/	.	.	.
.	8g 8e 8B/	.	.	.
8GG/)	8gJ 8e 8B/	.	.	.
!!LO:PB:g=original
=27:|!	=27:|!	=27:|!	=27:|!	=27:|!
!!LO:TX:a:B:t=2.
*>B2	*>B2	*>B2	*>B2	*>B2
*	*tremolo	*	*	*
[<4.E [4.EE\	8eL 8B< 8G</	.	4.e/	.
.	8e 8B< 8G</	.	.	.
.	8eJ 8B< 8G</	.	.	.
*	*Xtremolo	*	*	*
8E]L 8EE\]	8eL 8B< 8G</	.	4r	.
8F#\	8e 8B< 8G</	.	.	.
8E\J	8eJ 8B< 8G</	.	8r	.
=28	=28	=28	=28	=28
*	*tremolo	*	*	*
[<4.D\	8fnL 8B< 8G</	.	2.r	.
.	8f 8B< 8G</	<	.	.
.	8fJ 8B< 8G</	.	.	.
*	*Xtremolo	*	*	*
8D\L]	8fL 8B< 8G</	.	.	.
8E\	8f 8B< 8G</	.	.	.
8D\J	8fJ 8B< 8G</	[	.	.
=29||	=29||	=29||	=29||	=29||
*>C	*>C	*>C	*>C	*>C
*tremolo	*tremolo	*	*	*
8CL 8CC\	8eL 8c 8G</	f	([4.gg\	f
8C 8CC\	8e 8c 8G</	.	.	.
8C 8CC\	8e 8c 8G</	.	.	.
8C 8CC\	8e 8c 8G</	.	8gg\L]	.
8C 8CC\	8e 8c 8G</	.	8aa\	.
8CJ 8CC\	8eJ 8c 8G</	.	8gg\J)	.
=30	=30	=30	=30	=30
8CL 8CC\	8eL 8c 8G</	.	[4.cc\	.
8C 8CC\	8e 8c 8G</	.	.	.
8C 8CC\	8e 8c 8G</	.	.	.
8C 8CC\	8e 8c 8G</	.	4cc\]	.
8C 8CC\	8e 8c 8G</	.	.	.
8CJ 8CC\	8eJ 8c 8G</	.	8r	.
=31	=31	=31	=31	=31
8CL 8CC\	8d#XL 8c 8A< 8F#X</	.	([4.ccc\	fz
8C 8CC\	8d# 8c 8A< 8F#</	.	.	>
8C 8CC\	8d# 8c 8A< 8F#</	.	.	.
8C 8CC\	8d# 8c 8A< 8F#</	.	(8ccc\L]	.
8C 8CC\	8d# 8c 8A< 8F#</	.	8bb\	.
8CJ 8CC\	8d#J 8c 8A< 8F#</	.	8aa\J))	]]
=32	=32	=32	=32	=32
8CL 8CC\	8eL 8c 8G</	.	2.gg\	.
8C 8CC\	8e 8c 8G</	.	.	.
8C 8CC\	8e 8c 8G</	.	.	.
8C 8CC\	8e 8c 8G</	.	.	.
8C 8CC\	8e 8c 8G</	.	.	.
8CJ 8CC\	8eJ 8c 8G</	.	.	.
=33	=33	=33	=33	=33
8CL 8CC\	8eL 8c 8G</	.	([4.gg\	f
8C 8CC\	8e 8c 8G</	.	.	.
8C 8CC\	8e 8c 8G</	.	.	.
8C 8CC\	8e 8c 8G</	.	8gg\L]	.
8C 8CC\	8e 8c 8G</	.	8aa\	.
8CJ 8CC\	8eJ 8c 8G</	.	8gg\J)	.
=34	=34	=34	=34	=34
8CL 8CC\	8eL 8c 8G</	.	2.ee\	>]
8C 8CC\	8e 8c 8G</	>	.	.
8C 8CC\	8e 8c 8G</	.	.	.
8C 8CC\	8e 8c 8G</	.	.	.
8C 8CC\	8e 8c 8G</	.	.	.
8CJ 8CC\	8eJ 8c 8G</	]]	.	.
*Xtremolo	*	*	*	*
!!LO:LB:g=original
=35	=35	=35	=35	=35
(4.A 4.AA\	8f#XL 8d 8c/	p	([4.cc\	p
.	8f# 8d 8c/	.	.	.
.	8f# 8d 8c/	.	.	.
.	.	.	8qdd/	.
4.A-X 4.AA-X\	8f# 8d 8c/	.	(8cc'\L]	.
.	8f# 8d 8c/	.	8b'\	.
.	8f#J 8d 8c/	.	8cc'\J))	.
=36	=36	=36	=36	=36
2.G 2.GG\)	8gL 8d 8B/	.	[4.dd\	.
.	8g 8d 8B/	.	.	.
.	8gJ 8d 8B/	.	.	.
.	8fnL 8d 8B/	.	4dd\]	.
.	8f 8d 8B/	.	.	.
.	8fJ 8d 8B/	.	8r	.
=37	=37	=37	=37	=37
*tremolo	*	*	*	*
8CL 8CC\	8eL 8c 8G</	f	([4.gg\	f
8C 8CC\	8e 8c 8G</	.	.	.
8C 8CC\	8e 8c 8G</	.	.	.
8C 8CC\	8e 8c 8G</	.	8gg\L]	.
8C 8CC\	8e 8c 8G</	.	8aa\	.
8CJ 8CC\	8eJ 8c 8G</	.	8gg\J)	.
=38	=38	=38	=38	=38
8CL 8CC\	8eL 8c 8G</	.	[4.cc^<\	.
8C 8CC\	8e 8c 8G</	.	.	.
8C 8CC\	8e 8c 8G</	.	.	.
8C 8CC\	8e 8c 8G</	.	4cc\]	.
8C 8CC\	8e 8c 8G</	.	.	.
8CJ 8CC\	8eJ 8c 8G</	.	8r	.
=39	=39	=39	=39	=39
8CL 8CC\	8d#XL 8c 8A< 8F#X</	>	([4.ccc\	f >
8C 8CC\	8d# 8c 8A< 8F#</	.	.	.
8C 8CC\	8d# 8c 8A< 8F#</	.	.	.
8C 8CC\	8d# 8c 8A< 8F#</	.	8ccc\L]	.
8C 8CC\	8d# 8c 8A< 8F#</	.	8bb\	.
8CJ 8CC\	8d#J 8c 8A< 8F#</	]]	8aa\J)	]
*Xtremolo	*	*	*	*
=40	=40	=40	=40	=40
2.C 2.CC\	8eL 8c 8G</	.	2.gg\	.
.	8e 8c 8G</	.	.	.
.	8eJ 8c 8G</	.	.	.
.	8gL 8e 8c/	.	.	.
.	8g 8e 8c/	.	.	.
.	8gJ 8e 8c/	.	.	.
=41	=41	=41	=41	=41
[2.Fn [2.FFn/	8aL 8d 8c/	p	(4.aa\	p
.	8a 8d 8c/	.	.	.
.	8a 8d 8c/	.	.	.
.	8a 8d 8c/	.	4dd\	.
.	8a 8d 8c/	.	.	.
.	8aJ 8d 8c/	.	8ee\)	.
=42	=42	=42	=42	=42
2.F] 2.FF/]	8aL 8d 8c/	>	([2.ffn\	>]
.	8a 8d 8c/	.	.	.
.	8aJ 8d 8c/	.	.	.
.	8a-XL 8d 8c/	.	.	.
.	8a- 8d 8c/	.	.	.
.	8a-J 8d 8c/	]	.	.
!!LO:LB:g=original
=43	=43	=43	=43	=43
2.G 2.GG/	8gL 8d 8B/	.	4.ffnX\]	p
.	8g 8d 8B/	.	.	.
.	8gJ 8d 8B/	.	.	.
.	8fnL 8d 8B/	.	4dd\	.
.	8f 8d 8B/	.	.	.
.	8fJ 8d 8B/	.	8ee\	.
*	*Xtremolo	*	*	*
=44	=44	=44	=44	=44
4C 4CC\	8eL 8c/	.	4cc\)	.
.	8e 8c 8G</	.	.	.
8rAA	8eJ 8c 8G</	.	8r	.
*	*tremolo	*	*	*
4rAA	8eL 8c 8G</	.	4r	.
.	8e 8c 8G</	.	.	.
8rAA	8eJ 8c 8G</	.	8r	.
=45	=45	=45	=45	=45
2.E 2.EE\	8cL 8G</	.	(4.cc\	p
.	8c 8G</	.	.	.
.	8c 8G</	.	.	.
.	.	.	8qdd/	.
.	8c 8G</	.	(8cc\L	.
.	8c 8G</	.	8b\	.
.	8cJ 8G</	.	8cc\J))	.
=46	=46	=46	=46	=46
!	!	!	!LO:TX:b:t=poco cresc.-:ext=ud:problem:text with extention lines	!
([4.Fn [4.FFn\	8dL 8c 8A</	.	[2.dd\	<
!	!LO:TX:b:t=poco cresc.-:ext=ud:problem:text with extention lines	!	!	!
.	8d 8c 8A</	<	.	.
.	8d 8c 8A</	.	.	.
8F]L 8FF\]	8d 8c 8A</	.	.	.
8E 8EE\	8d 8c 8A</	.	.	.
8FJ 8FF\)	8dJ 8c 8A</	.	.	.
=47	=47	=47	=47	=47
4.F#X 4.FF#X\	8dL 8c 8A</	.	4.dd\]	.
.	8d 8c 8A</	.	.	.
.	8dJ 8c 8A</	.	.	.
.	.	.	8qee/	.
4.G 4.GG\	8dL 8B/	.	(8dd\L	.
.	8d 8B/	.	8cc#X\	.
.	8dJ 8B/	.	8dd\J)	.
=48	=48	=48	=48	=48
([4.G#X [4.GG#X\	8eL 8d 8B/	.	[2.ee\	.
.	8e 8d 8B/	.	.	.
.	8e 8d 8B/	.	.	.
8G#]L 8GG#\]	8e 8d 8B/	.	.	.
8F# 8FF#\	8e 8d 8B/	.	.	.
8G#J 8GG#\)	8eJ 8d 8B/	.	.	.
=49	=49	=49	=49	=49
2.A 2.AA\	8eL 8c/	.	4.ee\]	.
.	8e 8c/	.	.	.
.	8e 8c/	.	.	.
.	.	.	8qffn/	.
.	8e 8c/	.	(8ee\L	.
.	8e 8c/	.	8dd\	.
.	8eJ 8c/	[[	8ee\J)	[[
!!LO:LB:g=original
=50	=50	=50	=50	=50
2.Fn 2.FFn/	8dL 8c/	f	(4.ffn\	f >
.	8d 8c/	>	.	.
.	8d 8c/	.	.	.
.	8d 8c/	.	4.a-X/)	.
.	8d 8c/	.	.	]
.	8dJ 8c/	]]	.	.
=51	=51	=51	=51	=51
2.GG\	8dL 8B 8G</	p	(4.g/	p
.	8d 8B 8G</	.	.	.
.	8dJ 8B 8G</	.	.	.
.	8fnL 8B 8G</	.	4dd\	.
.	8f 8B 8G</	.	.	.
.	8fJ 8B 8G</	.	8ee\	.
=52	=52	=52	=52	=52
[4.C\	8eL 8c 8G</	.	4cc\)	.
.	8e 8c 8G</	.	.	.
.	8e 8c 8G</	.	8r	.
(8C\L]	8e 8c 8G</	.	4r	.
8D\	8e 8c 8G</	.	.	.
8C\J)	8eJ 8c 8G</	.	8r	.
=53	=53	=53	=53	=53
2.E 2.EE\	8cL 8G</	.	([4.cc\	p
.	8c 8G</	.	.	.
.	8c 8G</	.	.	.
.	8c 8G</	.	8cc\L]	.
.	8c 8G</	.	8dd\	.
.	8cJ 8G</	.	8cc\J)	.
=54	=54	=54	=54	=54
!	!	!	!LO:TX:b:t=cresc.-:ext=ud:problem:text with extention lines	!
[4.Fn [4.FFn\	8cL 8A</	.	2.a/	<
!	!LO:TX:b:t=cresc.-:ext=ud:problem:text with extention lines	!	!	!
.	8c 8A</	<	.	.
.	8c 8A</	.	.	.
(8F]L 8FF\]	8c 8A</	.	.	.
8E 8EE\	8c 8A</	.	.	.
8FJ 8FF\)	8cJ 8A</	.	.	.
=55	=55	=55	=55	=55
2.F#X 2.FF#X\	8dL 8c 8A</	.	([4.dd\	.
.	8d 8c 8A</	.	.	.
.	8d 8c 8A</	.	.	.
.	8d 8c 8A</	.	8dd\L]	.
.	8d 8c 8A</	.	8ee\	.
.	8dJ 8c 8A</	.	8dd\J)	.
=56	=56	=56	=56	=56
([4.G [4.GG\	8dL 8B/	.	2.b\	.
.	8d 8B/	.	.	.
.	8d 8B/	.	.	.
8G]L 8GG\]	8d 8B/	.	.	.
8F# 8FF#\	8d 8B/	.	.	.
8GJ 8GG\)	8dJ 8B/	[[	.	[[
!!LO:PB:g=original
=57	=57	=57	=57	=57
4.G#X 4.GG#X/	8eL 8d 8B/	.	[4.ee\	<
.	8e 8d 8B/	.	.	.
.	8eJ 8d 8B/	.	.	.
4.A 4.AA\	8eL 8c/	.	(8ee\L]	.
.	8e 8c/	.	8ffn\	.
.	8eJ 8c/	.	8ee\J)	[
=58	=58	=58	=58	=58
*tremolo	*	*	*	*
8F#XL 8FF#X/	8aL 8e-X 8c/	f >	2.aa\	f > ]]
8F# 8FF#/	8a 8e- 8c/	.	.	.
8F# 8FF#/	8a 8e- 8c/	.	.	.
8F# 8FF#/	8a 8e- 8c/	.	.	.
8F# 8FF#/	8a 8e- 8c/	.	.	.
8F#J 8FF#/	8aJ 8e- 8c/	]]	.	.
*Xtremolo	*	*	*	*
=59	=59	=59	=59	=59
2.G 2.GG/	8gL 8d 8c/	p	([4.dd\	p
.	8g 8d 8c/	.	.	.
.	8gJ 8d 8c/	.	.	.
*	*Xtremolo	*	*	*
.	8gL 8d 8B/	.	8dd\L]	.
.	8g 8fn 8B/	.	8ee\	.
.	8gJ 8f 8B/	.	8dd\J)	.
=60	=60	=60	=60	=60
*	*tremolo	*	*	*
([4.C/	8gL 8e 8c/	.	4cc\	.
.	8g 8e 8c/	.	.	.
.	8g 8e 8c/	.	8r	.
8C/L]	8g 8e 8c/	.	4r	.
8D/	8g 8e 8c/	.	.	.
8C/J)	8gJ 8e 8c/	.	8r	.
=61	=61	=61	=61	=61
2.BB/	8g#XL 8e 8d/	.	([4.ee\	.
.	8g# 8e 8d/	.	.	.
.	8g# 8e 8d/	.	.	.
.	8g# 8e 8d/	.	8ee\L]	.
.	8g# 8e 8d/	.	8ffn\	.
.	8g#J 8e 8d/	.	8ee\J)	.
=62	=62	=62	=62	=62
([4.AA/	8aL 8e 8c/	.	2.cc\	.
.	8a 8e 8c/	.	.	.
.	8a 8e 8c/	.	.	.
8AA/L]	8a 8e 8c/	.	.	.
8BB/	8a 8e 8c/	.	.	.
8AA/J)	8aJ 8e 8c/	.	.	.
=63	=63	=63	=63	=63
2.Fn^<\	8d#XL 8A/	.	([4.a/	.
.	8d# 8A/	.	.	.
.	8d# 8A/	.	.	.
.	.	.	8qb/	.
.	8d# 8A/	.	8a/L]	.
.	8d# 8A/	.	8g#X/	.
.	8d#J 8A/	.	8a/J)	.
!!LO:LB:g=original
=64	=64	=64	=64	=64
(<[<4.E\	8eL 8G#X</	.	4.b\	.
.	8e 8G#</	.	.	.
.	8e 8G#</	.	.	.
8E\L]	8e 8G#</	.	4r	.
8Fn\	8e 8G#</	.	.	.
8E\J)	8eJ 8G#</	.	8r	.
=65	=65	=65	=65	=65
2.GG#X/	8eL 8d 8B/	<	[4.ee\	<
.	8e 8d 8B/	.	.	.
.	8e 8d 8B/	.	.	.
.	8e 8d 8B/	.	(8ee\L]	.
.	8e 8d 8B/	.	8ffn\	.
.	8eJ 8d 8B/	[	8ee\J)	[
=66	=66	=66	=66	=66
*tremolo	*	*	*	*
8AA/L	8eL 8c 8A/	f	([4.ccc\	f
8AA/	8e 8c 8A/	.	.	.
8AA/	8e 8c 8A/	.	.	.
8AA/	8e 8c 8A/	.	8ccc\L]	.
8AA/	8e 8c 8A/	.	8bb\	.
8AA/J	8eJ 8c 8A/	.	8aa\J)	.
*Xtremolo	*	*	*	*
=67	=67	=67	=67	=67
2.FFn/	8d#XL 8A</	>	((8aa\L	>
.	8d# 8A</	.	8gg\	.
.	8d# 8A</	.	8ffn\J)	.
.	.	.	16qqff/LL	.
.	.	.	16qqgg/JJ	.
.	8d# 8A</	.	(8ff\L	.
.	8d# 8A</	.	8ee\	.
.	8d#J 8A</	]	8dd#X\J))	]
=68	=68	=68	=68	=68
*^	*	*	*	*
!	!	!	!LO:DY:b:rj	!	!
([4.BB/	2.EE\	8eL 8G#X</	pp	4ee\	p
.	.	8e 8G#</	.	.	.
.	.	8e 8G#</	.	8r	.
8BB/L]	.	8e 8G#</	.	4r	.
8C#X/	.	8e 8G#</	.	.	.
8BB/J)	.	8eJ 8G#</	.	8r	.
=69	=69	=69	=69	=69	=69
2.BB/	2.EE\	8d#XL 8A</	.	([4.bb\	p
.	.	8d# 8A</	.	.	.
.	.	8d# 8A</	.	.	.
.	.	8d# 8A</	.	8bb\L]	.
.	.	8d# 8A</	.	8ccc#X\	.
.	.	8d#J 8A</	.	8bb\J)	.
=70	=70	=70	=70	=70	=70
([4.BB/	2.EE\	8eL 8G#X</	.	[4.bb\	.
.	.	8e 8G#</	.	.	.
.	.	8e 8G#</	.	.	.
8BB/L]	.	8e 8G#</	.	4bb\]	.
8C#X/	.	8e 8G#</	.	.	.
8BB/J)	.	8eJ 8G#</	.	8r	.
=71	=71	=71	=71	=71	=71
[>2.BB/	[2.EE\	8d#XL 8A</	.	([4.b\	pp
.	.	8d# 8A</	.	.	.
.	.	8d# 8A</	.	.	.
.	.	8d# 8A</	.	8b\L]	.
.	.	8d# 8A</	.	8cc#X\	.
.	.	8d#J 8A</	.	8b\J)	.
*v	*v	*	*	*	*
!!LO:LB:g=original
=72	=72	=72	=72	=72
*tremolo	*	*	*	*
!LO:TX:t=P:problem:brak zakończenia ligatur	!	!	!	!
!LO:TX:t=P:problem:żle wyświetla się tremolo (przez ligatury)	!	!	!	!
8BBL] 8EE\]	8eL 8G#X</	.	[4.b\	.
8BB 8EE\	8e 8G#</	.	.	.
8BBJ 8EE\	8eJ 8G#</	<	.	.
8BBL 8EE\	8eL 8Gn</	.	4b\]	.
8BB 8EE\	8e 8G</	.	.	.
8BBJ 8EE\	8eJ 8G</	[[	8r	.
=73	=73	=73	=73	=73
8EL 8EE\	8eL 8B< 8Gn</	f	([4.gg\	f
8E 8EE\	8e 8B< 8G</	.	.	.
8E 8EE\	8e 8B< 8G</	.	.	.
8E 8EE\	8e 8B< 8G</	.	(8gg\L]	.
8E 8EE\	8e 8B< 8G</	.	8ff#\	.
8EJ 8EE\	8eJ 8B< 8G</	.	8ee\J))	.
=74	=74	=74	=74	=74
8AA/L	8eL 8c 8A/	.	([4.ee^<\	.
8AA/	8e 8c 8A/	.	.	.
8AA/	8e 8c 8A/	.	.	.
8AA/	8e 8c 8A/	.	(8ee\L]	.
8AA/	8e 8c 8A/	.	8dd\	.
8AA/J	8eJ 8c 8A/	.	8cc\J))	.
=75	=75	=75	=75	=75
8BB\L	8d#XL 8A</	.	([4.cc^<\	.
8BB\	8d# 8A</	.	.	.
8BB\	8d# 8A</	.	.	.
8BB\	8d# 8A</	.	(8cc\L]	.
8BB\	8d# 8A</	.	8b\	.
8BB\J	8d#J 8A</	.	8a\J))	.
*Xtremolo	*	*	*	*
=76	=76	=76	=76	=76
(<[<4.E\	8eL 8G</	.	[4.g/	.
.	8e 8G</	.	.	.
.	8e 8G</	.	.	.
8E\L]	8e 8G</	.	4g/]	.
8F#\	8e 8G</	.	.	.
8E\J)	8eJ 8G</	.	8r	.
=77	=77	=77	=77	=77
*tremolo	*	*	*	*
8CL 8CC\	8eL 8c 8G</	.	([4.gg\	<
8C 8CC\	8e 8c 8G</	<	.	.
8C 8CC\	8e 8c 8G</	.	.	.
8C 8CC\	8e 8c 8G</	.	(8gg\L]	.
8C 8CC\	8e 8c 8G</	.	8ff#\	.
8CJ 8CC\	8eJ 8c 8G</	[[	8ee\J))	[[
=78	=78	=78	=78	=78
8AA#XL 8AAA#X\	8eL 8c#X 8G</	f	2.eee\	f > ]]
8AA# 8AAA#\	8e 8c# 8G</	>	.	.
8AA# 8AAA#\	8e 8c# 8G</	.	.	.
8AA# 8AAA#\	8e 8c# 8G</	.	.	.
8AA# 8AAA#\	8e 8c# 8G</	.	.	.
8AA#J 8AAA#\	8eJ 8c# 8G</	]]	.	.
=79	=79	=79	=79	=79
8AA#XL 8AAA#X\	8c#XL 8G</	p	(4.e/	p
8AA# 8AAA#\	8c# 8G</	.	.	.
8AA# 8AAA#\	8c# 8G</	.	.	.
.	.	.	8qf#/	.
8AA# 8AAA#\	8c# 8G</	.	8e'/L	.
8AA# 8AAA#\	8c# 8G</	.	8d#X'/	.
8AA#J 8AAA#\	8c#J 8G</	.	8e'/J)	.
*Xtremolo	*	*	*	*
!!LO:LB:g=original
=80	=80	=80	=80	=80
*^	*	*	*	*
!	!	!	!LO:DY:b:rj	!	!
[>4.F#\	[2.BB [2.BBB\	8d#XL 8B</	pp	4f#/	.
.	.	8d# 8B</	.	.	.
.	.	8d#J 8B</	.	8r	.
8F#\L]	.	8d#L 8B</	.	4r	.
8G#X\	.	8d# 8B</	.	.	.
8F#\J	.	8d#J 8B</	.	8r	.
=81	=81	=81	=81	=81	=81
2.F#/	2.BB] 2.BBB\]	8eL 8A#X/	.	([4.ff#\	pp
.	.	8e 8A#/	.	.	.
.	.	8eJ 8A#/	.	.	.
.	.	8eL 8c#X 8A#/	.	8ff#\L]	.
.	.	8e 8c# 8A#/	.	8gg#X\	.
.	.	8eJ 8c# 8A#/	.	8ff#\J)	.
=82	=82	=82	=82	=82	=82
(<[4.F#/	[2.BB\	8d#XL 8B/	.	4ff#\	.
.	.	8d# 8B/	.	.	.
.	.	8d# 8B/	.	8r	.
8F#/L]	.	8d# 8B/	.	4r	.
8G#X/	.	8d# 8B/	.	.	.
8F#/J)	.	8d#J 8B/	.	8r	.
=83	=83	=83	=83	=83	=83
2.F#/	2.BB\]	8eL 8c#X 8A#X/	.	([4.f#/	.
.	.	8e 8c# 8A#/	.	.	.
.	.	8e 8c# 8A#/	.	.	.
.	.	8e 8c# 8A#/	.	8f#/L]	.
.	.	8e 8c# 8A#/	.	8g#X/	.
.	.	8eJ 8c# 8A#/	.	8f#/J)	.
=84	=84	=84	=84	=84	=84
4F#/	([4.BB\	8d#XL 8B/	.	([2.b\	.
.	.	8d# 8B/	.	.	.
8rA	.	8d# 8B/	.	.	.
4rA	8BB\L]	8d# 8B/	.	.	.
.	8Cn\	8d# 8B/	.	.	.
8rA	8BB\J)	8d#J 8B/	.	.	.
*v	*v	*	*	*	*
=85	=85	=85	=85	=85
!	!LO:TX:b:t=poco rallent. e dimin.:ext=s:problem:text with extention lines	!	!LO:TX:b:t=poco rallent. e dimin.:ext=s:problem:text with extention lines	!
(2.AA/	8d#XL 8B/	>	4.b\_	>
.	8d# 8B/	.	.	.
.	8d# 8B/	.	.	.
.	8d# 8B/	.	8b\L]	.
.	8d# 8B/	.	8cc\	.
.	8d#J 8B/	.	8b\J)	.
=86	=86	=86	=86	=86
2.GG/	8eL 8B/	.	([4.b\	.
.	8e 8B/	.	.	.
.	8e 8B/	.	.	.
.	8e 8B/	.	8b\L]	.
.	8e 8B/	.	8cc\	.
.	8eJ 8B/	.	8b\J)	.
=87	=87	=87	=87	=87
2.FF#/)	8aL 8d#X/	.	([4.cc^<\	.
.	8a 8d#/	.	.	.
.	8a 8d#/	.	.	.
.	8a 8d#/	.	4cc\]	.
.	8a 8d#/	.	.	.
.	8aJ 8d#/	]]	8b\)	]]
!!LO:PB:g=original
=88||	=88||	=88||	=88||	=88||
!	!LO:TX:a:i:t=a tempo	!	!LO:TX:a:i:t=a tempo	!LO:DY:b:rj
8EE/L	8gL 8e 8B/	p	([4.b\	p
8E/	8g 8e 8B/	.	.	.
8E/J	8g 8e 8B/	.	.	.
8E\L	8g 8e 8B/	.	8b\L]	.
8E\	8g 8e 8B/	.	8cc\	.
8E\J	8gJ 8e 8B/	.	8b\J)	.
=89	=89	=89	=89	=89
*tremolo	*	*	*	*
8E\L	8gL 8e 8B/	.	[4.e/	.
8E\	8g 8e 8B/	.	.	.
8E\	8g 8e 8B/	.	.	.
8E\	8g 8e 8B/	.	4e/]	.
8E\	8g 8e 8B/	.	.	.
8E\J	8gJ 8e 8B/	.	8r	.
=90	=90	=90	=90	=90
8E\L	8gL 8e 8B/	.	([4.b\	.
8E\	8g 8e 8B/	.	.	.
8E\	8g 8e 8B/	.	.	.
8E\	8g 8e 8B/	.	8b\L]	.
8E\	8g 8e 8B/	.	8cc\	.
8E\J	8gJ 8e 8B/	.	8b\J)	.
=91	=91	=91	=91	=91
8E\L	8gL 8e 8B/	<	[2.gg\	<
8E\	8g 8e 8B/	.	.	.
8E\	8g 8e 8B/	.	.	.
8E\	8g 8e 8B/	.	.	.
8E\	8g 8e 8B/	.	.	.
8E\J	8gJ 8e 8B/	.	.	.
=92	=92	=92	=92	=92
8E\L	8gL 8e 8B/	.	2.gg\_	.
8E\	8g 8e 8B/	.	.	.
8E\	8g 8e 8B/	.	.	.
8E\	8g 8e 8B/	.	.	.
8E\	8g 8e 8B/	.	.	.
8E\J	8gJ 8e 8B/	[[	.	[[
=93	=93	=93	=93	=93
8E\L	8gL 8e 8B/	.	(8gg\L]	f >
8E\	8g 8e 8B/	.	8ff#\	.
8E\	8gJ 8e 8B/	.	8ee\J	.
8E\	8g#XL 8e 8B/	.	8dd#X\L	.
8E\	8g# 8e 8B/	.	8ee\	.
8E\J	8g#J 8e 8B/	.	8b\J)	]]
*Xtremolo	*	*	*	*
=94	=94	=94	=94	=94
[2.AA/	8g#XL 8e 8B/	>	(2.ddn\	>]
.	8g# 8e 8B/	.	.	.
.	8g# 8e 8B/	.	.	.
.	8g# 8e 8B/	.	.	.
.	8g# 8e 8B/	.	.	.
.	8g#J 8e 8B/	]]	.	.
!!LO:LB:g=original
=95	=95	=95	=95	=95
(4.AA/_	8aL 8e 8c/	p	4.cc\)	.
.	8a 8e 8c/	.	.	.
.	8a 8e 8c/	.	.	.
8AA/L]	8a 8e 8c/	.	4r	.
8BB/	8a 8e 8c/	.	.	.
8AA/J)	8aJ 8e 8c/	.	8r	.
=96	=96	=96	=96	=96
2.DD#X^>/	8aL 8f# 8c/	.	([4.cc\	p
.	8a 8f# 8c/	.	.	.
.	8a 8f# 8c/	.	.	.
.	8a 8f# 8c/	.	8cc\L]	.
.	8a 8f# 8c/	.	8dd\	.
.	8aJ 8f# 8c/	.	8cc\J)	.
=97	=97	=97	=97	=97
([4.AA/	8aL 8f# 8c/	.	[4.f#/	.
.	8a 8f# 8c/	.	.	.
.	8a 8f# 8c/	.	.	.
8AA/L]	8a 8f# 8c/	.	4f#/]	.
8BB/	8a 8f# 8c/	.	.	.
8AA/J)	8aJ 8f# 8c/	.	8r	.
=98	=98	=98	=98	=98
2.DD#X^/	8aL 8f# 8c/	<	[4.cc\	<
.	8a 8f# 8c/	.	.	.
.	8a 8f# 8c/	.	.	.
.	8a 8f# 8c/	.	8cc\L]	.
.	8a 8f# 8c/	.	8dd\	.
.	8aJ 8f# 8c/	.	8cc\J	.
=99	=99	=99	=99	=99
*tremolo	*	*	*	*
8D#X\L	8aL 8f# 8c/	.	([2.aa\	.
8D#\	8a 8f# 8c/	.	.	.
8D#\	8a 8f# 8c/	.	.	.
8D#\	8a 8f# 8c/	.	.	.
8D#\	8a 8f# 8c/	.	.	.
8D#\J	8aJ 8f# 8c/	[[	.	[[
=100	=100	=100	=100	=100
8D#X\L	8aL 8f# 8B/	>	4aa\]	>
8D#\	8a 8f# 8B/	.	.	.
8D#\	8a 8f# 8B/	.	8gg\)	.
8D#\	8a 8f# 8B/	.	(8gg\L	.
8D#\	8a 8f# 8B/	.	8ff#\	.
8D#\J	8aJ 8f# 8B/	]]	8ee\J)	.
=101	=101	=101	=101	=101
8BB/L	8aL 8f# 8B/	.	(8ee\L	.
8BB/	8a 8f# 8B/	.	8dd#X\	.
8BB/	8aJ 8f# 8B/	.	8cc\J)	]
.	.	.	16qqcc/LL	.
.	.	.	16qqddn/JJ	.
8BB/	8aL 8d#X 8B/	.	(8cc^<\L	.
8BB/	8a 8d# 8B/	.	8b\	.
8BB/J	8aJ 8d# 8B/	.	8f#\J)	.
*Xtremolo	*	*	*	*
!!LO:LB:g=original
=102	=102	=102	=102	=102
[2.EE/	8f#L 8d#X 8B^>/	.	(2.a^>/	.
.	8f# 8d# 8B/	.	.	.
.	8f# 8d# 8B/	.	.	.
.	8f# 8d# 8B/	.	.	.
.	8f# 8d# 8B/	.	.	.
.	8f#J 8d# 8B/	.	.	.
=103	=103	=103	=103	=103
(4.EE/_	8gL 8e 8B/	.	4g/)	.
.	8g 8e 8B/	.	.	.
.	8g 8e 8B/	.	8r	.
8EE/L]	8g 8e 8B/	.	4r	.
8FF#/	8g 8e 8B/	.	.	.
8EE/J)	8gJ 8e 8B/	.	8r	.
=104	=104	=104	=104	=104
[2.GG/	8eL 8B/	f	([4.ee\	f
.	8e 8B/	.	.	.
.	8e 8B/	.	.	.
.	8e 8B/	.	8ee\L]	.
.	8e 8B/	.	8ff#\	.
.	8eJ 8B/	.	8ee\J)	.
=105	=105	=105	=105	=105
(4.GG/_	8eL 8B/	.	4.e/	.
.	8e 8B/	.	.	.
.	8e 8B/	.	.	.
8GG/L]	8e 8B/	.	4r	.
8FF#/	8e 8B/	.	.	.
8GG/J)	8eJ 8B/	.	8r	.
=106	=106	=106	=106	=106
2.AA/	8eL 8c/	.	([4.ee\	.
.	8e 8c/	.	.	.
.	8e 8c/	.	.	.
.	8e 8c/	.	8ee\L]	.
.	8e 8c/	.	8ff#\	.
.	8eJ 8c/	.	8ee\J)	.
=107	=107	=107	=107	=107
([4.AA/	8f#L 8e 8c/	>	2.cc\	>]
.	8f# 8e 8c/	.	.	.
.	8f# 8e 8c/	.	.	.
8AA/L]	8f# 8e 8c/	.	.	.
8GG#X/	8f# 8e 8c/	.	.	.
8AA/J)	8f#J 8e 8c/	]]	.	.
=108	=108	=108	=108	=108
2.BB/	8gL 8e 8B/	p	([4.b\	p
.	8g 8e 8B/	.	.	.
.	8g 8e 8B/	.	.	.
.	8g 8e 8B/	.	8b\L]	.
.	8g 8e 8B/	.	8cc\	.
.	8gJ 8e 8B/	.	8b\J)	.
!!LO:LB:g=original
=109	=109	=109	=109	=109
2.BB 2.BBB\	8d#XL 8B< 8A</	.	([4.f#/	.
.	8d# 8B< 8A</	.	.	.
.	8d# 8B< 8A</	.	.	.
.	8d# 8B< 8A</	.	8f#/L]	.
.	.	.	16qqg/LL	.
.	.	.	16qqa/JJ	.
.	8d# 8B< 8A</	.	8g/	.
.	8d#J 8B< 8A</	.	8f#/J)	.
=110	=110	=110	=110	=110
(<[<4.EE\	8eL 8B< 8G</	.	4e/	.
.	8e 8B< 8G</	.	.	.
.	8e 8B< 8G</	.	8r	.
8EE\L]	8e 8B< 8G</	.	4r	.
8FF#\	8e 8B< 8G</	.	.	.
8EE\J)	8eJ 8B< 8G</	.	8r	.
=111	=111	=111	=111	=111
!	!	!	!LO:TX:b:i:t=accelerando e molto cresc.-:ext=ud:problem:text with extention lines	!
2.GG\	8eL 8B</	.	([4.ee\	<
!	!LO:TX:b:i:t=accelerando e molto cresc.-:ext=ud:problem:text with extention lines	!	!	!
.	8e 8B</	<	.	.
.	8e 8B</	.	.	.
.	8e 8B</	.	8ee\L]	.
.	8e 8B</	.	8dd#X\	.
.	8eJ 8B</	.	8ee\J)	.
=112	=112	=112	=112	=112
(>[4.AA [4.AAA/	8fnL 8e 8c/	.	([2.ffn\	.
.	8f 8e 8c/	.	.	.
.	8f 8e 8c/	.	.	.
8AA]L 8AAA/]	8f 8e 8c/	.	.	.
8GG#X 8GGG#X/	8f 8e 8c/	.	.	.
8AAJ 8AAA/)	8fJ 8e 8c/	.	.	.
=113	=113	=113	=113	=113
2.AA 2.AAA/	8fnL 8e 8c/	.	4.ff\_	.
.	8f 8e 8c/	.	.	.
.	8f 8e 8c/	.	.	.
.	8f 8e 8c/	.	8ff\L]	.
.	8f 8e 8c/	.	8ee\	.
.	8fJ 8e 8c/	.	8ffn\J)	.
=114	=114	=114	=114	=114
(>[4.AA#X [4.AAA#X/	8f#XL 8e 8c#X/	.	([2.ff#X\	.
.	8f# 8e 8c#/	.	.	.
.	8f# 8e 8c#/	.	.	.
8AA#]L 8AAA#/]	8f# 8e 8c#/	.	.	.
8GG##X 8GGG##X/	8f# 8e 8c#/	.	.	.
8AA#J 8AAA#/)	8f#J 8e 8c#/	.	.	.
=115	=115	=115	=115	=115
2.AA#X 2.AAA#X/	8f#XL 8e 8c#X/	.	4.ff#\_	.
.	8f# 8e 8c#/	.	.	.
.	8f# 8e 8c#/	.	.	.
.	8f# 8e 8c#/	.	(8ff#\L]	.
.	8f# 8e 8c#/	.	8ee\	.
.	8f#J 8e 8c#/	.	8ff#\J))	.
!!LO:PB:g=original
=116	=116	=116	=116	=116
(4.BB 4.BBB/	8gL 8e 8B/	.	4.gg^\	.
.	8g 8e 8B/	.	.	.
.	8gJ 8e 8B/	.	.	.
4.D 4.DD/	8g#XL 8e 8B/	.	4.gg#X^\	.
.	8g# 8e 8B/	.	.	.
.	8g#J 8e 8B/	.	.	.
=117	=117	=117	=117	=117
4.C#X 4.CC#X/	8aL 8e 8A/	.	4.aa^\	.
.	8a 8e 8A/	.	.	.
.	8aJ 8e 8A/	.	.	.
4.Cn 4.CCn/)	8gnL 8e 8A#X/	.	[4.eee^\	[[
.	8g 8e 8A#/	.	.	.
.	8gJ 8e 8A#/	[[	.	.
=118	=118	=118	=118	=118
2.BB 2.BBB/	8gL 8e 8B/	ff >	8eee\L]	ff >
!	!LO:TX:b:i:t=riten.	!	!LO:TX:b:i:t=riten.	!
.	8g 8e 8B/	.	8bb^\	.
.	8gJ 8e 8B/	.	8gg^\J	.
.	8eL 8B/	.	(8ee'^\L	.
.	8e 8B/	.	8b'\	.
.	8eJ 8B/	]]	8g'\J)	]]
=119	=119	=119	=119	=119
2.BB 2.BBB/	8eL 8A/	p	([4.f#/	p
.	8e 8A/	.	.	.
.	8eJ 8A/	.	.	.
.	8d#XL 8A/	.	8f#/L]	.
.	8d# 8A/	.	8cc;/	.
.	8d#J 8A/	.	8b/J)	.
=120	=120	=120	=120	=120
!	!LO:TX:a:i:t=a tempo	!LO:DY:a	!LO:TX:a:i:t=a tempo	!
([4.E [4.EE/	8eL 8B 8G/	.	4e/	.
.	8e 8B 8G/	.	.	.
.	8e 8B 8G/	.	8r	.
!	!LO:TX:a:i:t=cresc. ed accelerando-:ext=ud:problem:text with extention lines	!LO:HP:a	!LO:TX:a:i:t=cresc. ed accelerando-:ext=ud:problem:text with extention lines	!LO:HP:a
8E]L 8EE/]	8e 8B 8G/	<	4r	<
8FF#/	8e 8B 8G/	.	.	.
8EE/J)	8eJ 8B 8G/	.	8r	.
=121	=121	=121	=121	=121
2.GG/	8eL 8B/	.	([4.ee\	.
.	8e 8B/	.	.	.
.	8e 8B/	.	.	.
.	8e 8B/	.	8ee\L]	.
.	8e 8B/	.	8dd#X\	.
.	8eJ 8B/	.	8ee\J)	.
=122	=122	=122	=122	=122
(4.AA [4.AAA/	8fnL 8e 8c/	.	([2.ffn\	.
.	8f 8e 8c/	.	.	.
.	8f 8e 8c/	.	.	.
8AAL 8AAA/]	8f 8e 8c/	.	.	.
8GG#X 8GGG#X/	8f 8e 8c/	.	.	.
8AAJ 8AAA/)	8fJ 8e 8c/	.	.	.
!!LO:LB:g=original
=123	=123	=123	=123	=123
!	!	!	!LO:TX:t=P:problem:przedłużenie _ _ _ cresc. dołem	!
2.AA 2.AAA/	8fnL 8e 8c/	.	4.ffnX\_	.
.	8f 8e 8c/	.	.	.
.	8f 8e 8c/	.	.	.
.	8f 8e 8c/	.	8ff\L]	.
.	8f 8e 8c/	.	8ee\	.
.	8fJ 8e 8c/	.	8ff\J)	.
=124	=124	=124	=124	=124
([4.AA#X [4.AAA#X/	8f#XL 8e 8c#X/	.	([2.ff#X\	.
.	8f# 8e 8c#/	.	.	.
.	8f# 8e 8c#/	.	.	.
8AA#]L 8AAA#/]	8f# 8e 8c#/	.	.	.
8GG##X 8GGG##X/	8f# 8e 8c#/	.	.	.
8AA#J 8AAA#/)	8f#J 8e 8c#/	.	.	.
=125	=125	=125	=125	=125
2.AA#X 2.AAA#X/	8f#XL 8e 8c#X/	.	4.ff#\_	.
.	8f# 8e 8c#/	.	.	.
.	8f# 8e 8c#/	.	.	.
.	8f# 8e 8c#/	.	(8ff#\L]	.
.	8f# 8e 8c#/	.	8ee\	.
.	8f#J 8e 8c#/	.	8ff#\J))	.
=126	=126	=126	=126	=126
*	*	*	*	*^
4.BB 4.BBB/	8gL 8e 8B/	.	4.gg^\	.	f
.	8g 8e 8B/	.	.	.	.
.	8gJ 8e 8B/	.	.	.	.
4.D 4.DD/	8g#XL 8e 8B/	.	4.gg#X^\	.	.
.	8g# 8e 8B/	.	.	.	.
.	8g#J 8e 8B/	.	.	.	.
*	*	*	*	*v	*v
=127	=127	=127	=127	=127
4.C#X 4.CC#X/	8aL 8e 8A/	.	4.aa^\	.
.	8a 8e 8A/	.	.	.
.	8aJ 8e 8A/	.	.	.
4.Cn 4.CCn/	8gnL 8e 8A#X/	.	[4.eee^\	.
.	8g 8e 8A#/	.	.	.
.	8gJ 8e 8A#/	[[	.	[[
=128	=128	=128	=128	=128
*tremolo	*	*	*	*
8BBL 8BBB/	8gL 8e 8B/	ff	(4eee\]	ff
!	!LO:TX:b:i:t=ben riten.	!	!LO:TX:b:i:t=ben riten.	!
8BB 8BBB/	8g 8e 8B/	.	.	.
8BB 8BBB/	8g 8e 8B/	.	8bb\)	.
8BB 8BBB/	8g 8e 8B/	.	(4bb\	>
8BB 8BBB/	8g 8e 8B/	.	.	.
8BBJ 8BBB/	8gJ 8e 8B/	>	8gg\)	.
=129	=129	=129	=129	=129
8BBL 8BBB/	8gL 8e 8B/	.	(4gg\	.
8BB 8BBB/	8g 8e 8B/	.	.	.
8BB 8BBB/	8g 8e 8B/	.	8ee\)	.
8BB 8BBB/	8g 8e 8B/	.	(4ee\	]
8BB 8BBB/	8g 8e 8B/	.	.	.
8BBJ 8BBB/	8gJ 8e 8B/	]	8b\)	.
*Xtremolo	*	*	*	*
!!LO:LB:g=original
=130	=130	=130	=130	=130
[2.BB/	8f#L 8e 8A/	p	4b\	p
.	8f# 8e 8A/	.	.	.
.	8f# 8e 8A/	.	8r	.
.	8f# 8e 8A/	.	([4.cc\	>]
.	8f# 8e 8A/	.	.	.
.	8f#J 8e 8A/	.	.	.
=131	=131	=131	=131	=131
!	!	!	!	!LO:HP:b:t=dim.
2.BB\]	8f#L 8d#X 8A</	.	4.cc\]	>
.	8f# 8d# 8A</	.	.	.
.	8f# 8d# 8A</	.	.	.
.	8f# 8d# 8A</	.	4.b\)	.
.	8f# 8d# 8A</	.	.	.
.	8f#J 8d# 8A</	.	.	.
=132	=132	=132	=132	=132
!	!	!LO:DY:b=2	!	!
(<[<4.E\	8eL 8B< 8G</	p	4e/	p
!	!LO:TX:b:i:t=a tempo ma più lento e sempre poco a poco-:dur=29e:ext=ud:problem:text with extention lines	!	!LO:TX:b:i:t=a tempo ma più lento e sempre poco a poco-:dur=29e:ext=ud:problem:text with extention lines	!
.	8e 8B< 8G</	.	.	.
.	8e 8B< 8G</	.	8r	.
8E\L]	8e 8B< 8G</	.	4r	.
8F#\	8e 8B< 8G</	.	.	.
8E\J)	8eJ 8B< 8G</	.	8r	.
=133	=133	=133	=133	=133
2.GG/	8eL 8B/	.	([4.ee\	.
.	8e 8B/	.	.	.
.	8e 8B/	.	.	.
.	8e 8B/	.	8ee\L]	.
.	8e 8B/	.	8ff#\	.
.	8eJ 8B/	.	8ee\J	.
=134	=134	=134	=134	=134
2.AA/	8f#L 8e 8c/	.	[4.ee^\	.
.	8f# 8e 8c/	.	.	.
.	8f# 8e 8c/	.	.	.
.	8f# 8e 8c/	.	8ee\L]	.
.	8f# 8e 8c/	.	8dd\	.
.	8f#J 8e 8c/	.	8cc\J	.
=135	=135	=135	=135	=135
2.BB/	8f#L 8d#X 8A/	.	[4.cc^\	.
.	8f# 8d# 8A/	.	.	.
.	8f# 8d# 8A/	.	.	.
.	8f# 8d# 8A/	.	8cc\L]	.
.	8f# 8d# 8A/	.	8b\	.
.	8f#J 8d# 8A/	.	8a\J)	.
=136	=136	=136	=136	=136
([4.C/	8eL 8G/	.	[4.g/	.
.	8e 8G/	.	.	.
.	8e 8G/	.	.	.
8C/L]	8e 8G/	.	4g/]	.
8D/	8e 8G/	.	.	.
8C/J)	8eJ 8G/	.	8r	.
!!LO:LB:g=original
=137	=137	=137	=137	=137
!	!LO:TX:b:t=rallen e dimin.:ext=ud:problem:text with extention lines	!	!LO:TX:b:t=rallen e dimin.:ext=ud:problem:text with extention lines	!
(4.GG/	8eL 8B/	.	([4.ee\	>
.	8e 8B/	.	.	.
.	8eJ 8B/	.	.	.
4.GG#X/	8eL 8d 8B/	.	8ee\L]	.
.	8e 8d 8B/	.	8ffn\	.
.	8eJ 8d 8B/	.	8ee\J)	.
=138	=138	=138	=138	=138
2.AA/)	8eL 8c 8A/	>	([4.ee^\	.
.	8e 8c 8A/	.	.	.
.	8e 8c 8A/	.	.	.
.	8e 8c 8A/	.	8ee\L]	.
.	8e 8c 8A/	.	8dd\	.
.	8eJ 8c 8A/	.	8cc\J)	.
=139	=139	=139	=139	=139
2.BB\	8d#XL 8B< 8A</	.	(8cc\L	.
.	8d# 8B< 8A/	.	8b\	.
.	8d# 8B< 8A</	.	8a\J)	.
.	.	.	(16qqa/LL	.
.	.	.	16qqb/JJ	.
.	8d# 8B< 8A</	.	(8a/L)	.
.	8d# 8B< 8A</	.	8g/	.
.	8d#J 8B< 8A</	]]	8f#/J)	]]
=140	=140	=140	=140	=140
!	!	!LO:DY:b:rj	!	!
(<[<4.E\	8eL 8B< 8G</	pp	2.e/	p
.	8e 8B< 8G</	.	.	.
.	8e 8B< 8G</	.	.	.
8E\L]	8e 8B< 8G</	.	.	.
8F#\	8e 8B< 8G</	.	.	.
8E\J)	8eJ 8B< 8G</	.	.	.
=141	=141	=141	=141	=141
(<4.C\	8eL 8c 8A</	.	2.ee\	pp
.	8e 8c 8A</	.	.	.
.	8e 8c 8A</	.	.	.
4.AA\)	8e 8c 8A</	.	.	.
.	8e 8c 8A</	.	.	.
.	8eJ 8c 8A</	.	.	.
=142	=142	=142	=142	=142
*tremolo	*	*	*	*
!	!LO:TX:a:i:t=trem.	!	!	!
32ELLL 32EE;<\	32eLLL 32B< 32G#X<;/	<	2.eee;\	<
32E 32EE\	32e 32B< 32G#</	.	.	.
32E 32EE\	32e 32B< 32G#</	.	.	.
32E 32EE\	32e 32B< 32G#</	.	.	.
32E 32EE\	32e 32B< 32G#</	.	.	[
32E 32EE\	32e 32B< 32G#</	[>	.	>
32E 32EE\	32e 32B< 32G#</	.	.	.
32E 32EE\	32e 32B< 32G#</	.	.	.
32E 32EE\	32e 32B< 32G#</	.	.	.
32E 32EE\	32e 32B< 32G#</	.	.	]
32E 32EE\	32e 32B< 32G#</	.	.	.
32E 32EE\	32e 32B< 32G#</	.	.	.
32E 32EE\	32e 32B< 32G#</	.]	.	.
32E 32EE\	32e 32B< 32G#</	.	.	.
32E 32EE\	32e 32B< 32G#</	.	.	.
32E 32EE\	32e 32B< 32G#</	.	.	.
32E 32EE\	32e 32B< 32G#</	.	.	.
32E 32EE\	32e 32B< 32G#</	.	.	.
32E 32EE\	32e 32B< 32G#</	.	.	.
32E 32EE\	32e 32B< 32G#</	.	.	.
32E 32EE\	32e 32B< 32G#</	.	.	.
32E 32EE\	32e 32B< 32G#</	.	.	.
32E 32EE\	32e 32B< 32G#</	.	.	.
32EJJJ 32EE\	32eJJJ 32B< 32G#</	]]	.	.
*Xtremolo	*Xtremolo	*	*	*
==	==	==	==	==
*-	*-	*-	*-	*-
!!!system-decoration: s1{(s2,s3)}
!!!RDF**kern: > = above
!!!RDF**kern: < = below
!!!RDF**kern: N = linked
!!!ENC: Berenika Jozajtis
!!!END: 2022-09-19
!!!ENC: Katarzyna Serwa
!!!END: 2022-10-30
!!!YEC: Copyright 2022 Narodowy Instytut Fryderyka Chopina (https://polishscores.org)
!!!YEM: License CC-BY-4.0 (https://creativecommons.org/licenses/by/4.0)
